usr/share/icons/biglinux-icons-material-dark/symbolic/status/weather-none-available-symbolic.svg

<svg width="16" height="16" version="1.1" xmlns="http://www.w3.org/2000/svg">
 <text x="5.5240259" y="14.608018" fill="#ff5555" font-family="sans-serif" font-size="9.3287px" font-weight="bold" letter-spacing="0px" word-spacing="0px" style="line-height:1.25" xml:space="preserve"><tspan x="5.5240259" y="14.608018" fill="#ff5555" font-family="sans-serif" font-weight="bold">?</tspan></text>
 <path d="m8.64 0.668c-2.158 2e-3 -3.992 1.331-4.868 3.232l-0.061 0.13-0.139 0.01c-1.994 0.144-3.572 1.87-3.572 3.968 0 2.193 1.716 3.992 3.838 3.992h2.162v-1h-2.162c-1.557 0-2.838-1.321-2.838-2.992 0-1.597 1.184-2.866 2.644-2.973l0.723-0.05 0.31-0.663v-4e-3c0.729-1.58 2.213-2.649 3.961-2.65 2.368 2e-3 4.292 1.952 4.405 4.447v0.01l0.05 0.776 0.704 0.296a1.944 1.944 0 0 1 1.195 1.815c0.01 1.114-0.846 1.988-1.871 1.988h-3.123v1h3.123c1.591 0 2.877-1.35 2.877-2.988a2.958 2.958 0 0 0-1.805-2.735l-0.136-0.058-0.01-0.149c-0.136-2.993-2.487-5.4-5.405-5.402z" color="#000000" fill="#dedede" font-weight="400" overflow="visible" style="text-decoration-line:none;text-indent:0;text-transform:none"/>
</svg>

<svg xmlns="http://www.w3.org/2000/svg" width="16" height="16">
<text xml:space="preserve" x="5.524" y="14.608" fill="#f55" font-family="sans-serif" font-size="9.329" font-weight="bold" letter-spacing="0" style="line-height:1.25" word-spacing="0"><tspan x="5.524" y="14.608">?</tspan></text>
<path fill="#363636" d="M8.64.668C6.482.67 4.648 1.999 3.772 3.9l-.061.13-.139.01C1.578 4.184 0 5.91 0 8.008 0 10.201 1.716 12 3.838 12H6v-1H3.838C2.281 11 1 9.679 1 8.008c0-1.597 1.184-2.866 2.644-2.973l.723-.05.31-.663v-.004c.729-1.58 2.213-2.649 3.961-2.65 2.368.002 4.292 1.952 4.405 4.447v.01l.05.776.704.296a1.94 1.94 0 0 1 1.195 1.815c.01 1.114-.846 1.988-1.871 1.988H9.998v1h3.123c1.591 0 2.877-1.35 2.877-2.988a2.96 2.96 0 0 0-1.805-2.735l-.136-.058-.01-.149C13.911 3.077 11.56.67 8.642.668z" color="#000" font-weight="400" overflow="visible" style="text-decoration-line:none;text-indent:0;text-transform:none"/>
</svg>
